X:1
T:Polka irlandaise
M:C|
L:1/8
R:Polka
Q:"Quick"
N:from the playing of composer & accordionist Alfred
N:Montmarquette (1871-1944, Montreal)
D:Starr 15544B (78 RPM), Alfred Montmarquette  (1928)
D: https://www.collectionscanada.ca/obj/m2/f7/13271.mp3
N: https://www.bac-lac.gc.ca/eng/discover/films-videos-sound-recordings/virtual-gramophone/Pages/Item.aspx?idNumber=1007637402
Z:Transcribed by Andrew Kuntz
K:A
A/c/e/|:a3e g3e|f2f2 EFGB|g3ef2cd|e2 ec EAce|
a3e g3e|f2f2 EFGB|gedG Aaec|1A2 (B/c/B/G/) AAce:|2[M:2/4]A2||
|:(G/A/G)|[M:C|]E2 AA AGAB|[C2A2][B,2G2][B,2G4]|E2BB BGBc|B2A2 A2FF|
E2cc cBAc|e2F2[F4A4]|A2 AA G-FEG|B2A2A2:|

